X:1263410
%%pagescale .95
%%staffsep 70pt
T:Valse Clogue
C:Joseph Guilmette
S:Philippe Bruneau, $2Philippe Bruneau.$0 Philo FI-2003, 1973.
S:With Yvan Brault, piano & Gilles Losier, bass.
S:Carmelle B\'egin, $2Philippe Bruneau: Musique traditionelle pour accorde\u0301on diatonique.$0
S:Ottawa: Muse\u0301es nationaux du Canada, 1983.
H:A complete transcription may be found in Carmelle BÃ©gin's excellent book
H:of transcriptions of the playing of Philippe Bruneau. Although this transcription is
H:primarily based on the recording, Carmelle BÃ©gin's book was very helpful at times.
H:In this transcription I have omitted some of the octave double stops, quintuplets
H:and other ornaments that would be nearly or completely unplayable on a fiddle.
N:From NH Country Dance (URL below), along with many New England, Canadian & Swedish
N:tunes, and resources for abc notation and New England traditional music and dance.
%
N: Note #1: To preserve formatting (font, spacing, etc.), use the
N: file header at the URL below; just follow accompanying instructions.
%
N: Note #2: This abc code is optimized for use with abcm2ps, which is used by
N: EasyABC and other abc apps. To abc2svg for display or printing look to see if there
N: is a file optimized for abc2svg. If not you may need to adjust the spacing in places.
%
Z:abc-transcription Peter Yarensky. I rely heavily on careful listening to the
Z:named sources aided by software to hear details. While not perfect, known
Z:substantial differences from other written sources receive careful attention.
Z:abc-copyright Peter Yarensky. You may reproduce this tune freely but
Z:please include the entire abc file including all the notes.
%%writefields HQSD
U:s = !slide!
U:t = !trill!
F:Tunes Home Page - https://fiddle-tunes.nhcountrydance.com/
F:abc Header & its Usage - https://fiddle-tunes.nhcountrydance.com/header-page/
M:3/4
L:1/8
R:Waltz
G:Couples Dances ~ Waltzes ~ Canadian
N: Tune Tags ~ Waltz, Canadian, Joseph Guilmette
K:Bm
%%begintext
%% $2As played by Philippe Bruneau on button accordion. Fiddlers may have to adapt in places.$0
%% $2See notes below about A & B part endings.$0
%%endtext
%%text Introduction: Last 4 measures of A part with first ending.
%%
g2 |\
"Bm" f2 Bc dB | "Bm" ff Bc dB | "Em" gz gB gB |  "Bm" BB f4 |\
"Bm" ff Bc dB | "Bm" ff Bc dB | "C#7" c2> f2 f2 | "F#7 " c/c/c ff fe |
"Bm" f2 Bc dB | "Bm" ff Bc dB | "Em" gz gB gB |  "Bm" BB f2- fe |\
"_Bm" "/F#" ff "/G" gg "/F#" (3fgf | "_Em" "/E" (3efe "/D" (3ded "/C#" (3cdc |\
"_Bm" "/B" (3BcB "/D" dB "_F#7" "/F#"df |1 "_Bm" "/B" bb "Bm" b2 :|2 "_Bm" "/B" bb "Bm" b2 a2 | "Em" a2 g2 BB ||
|: "A7" cc ec BB | "D" AA ff AA |  "Bm"  BB BA BA |\
"Em" aa gg BB    | "A7" cc ff cc | "D" ee dd (3BcB | "D"  aa aa aa | "Em" aa gg BB |
"A7" cc ed (3BcB | "D" AA ff AA | "Bm" BB Ba Ba |\
"Em" aa gg BB | "A7" cc ff ee | "D" (3ded cd fa |1 "D" d'a fa df | "Em" BB gg BB :|2 "D" d'd' d'2 |]
%
%%vskip 20
%%text $1He played the melody differently each time through. Here are some A-part variations. $0
%%vskip 15
"Bm" f2 Bc dB | "Bm" .fz B>c dB | "Em" gg gB gB |  "Bm" (3BcB f2>f2 |\
"Bm" f2 Bc dB | "Bm" fz Bc dB | "C#7" c2> f2 f2 | "F#7 " c/c/c ff fe |
%
%%begintext
%% $2A part:$0 In the last 4 measures the piano played only bass notes; the chords below
%% are my best guesses. The B part actually begins during the second ending.
%% $2B part:$0 The repeat of the B part begins during the first ending.
%%
%%endtext
%%textfont Palatino-Roman 16
%%

